!!!OTL: Metzger zu Frankfurt (2-37) S. 117
!!!id: P0910
**kern
*clefG2
*k[]
*A:
{8e
=1
8e
8a
8a
4a
8cc#
=2
4cc#
8ee
4a}
=3
{8cc#
=4
8cc#
8b
8b
8e
8g#
8b
=5
4.b
4a}
=6
{8e
=7
8e
8a
16a
16a
8a
8cc#
8cc#
=8
4cc#
8ee
4a}
=9
{8cc#
=10
8cc#
8b
8b
8e
8g#
8b
=11
4.b
4a}
=12
{8e
=13
8e
8a
16a
16a
8a
8cc#
8cc#
=14
4cc#
8ee
4a}
=15
{8cc#
=16
8cc#
8b
8b
8e
8g#
8b
=17
4.b
4a}
==
*-
!!!minrhy: 16
!!!meters: 6/8 ]  ZZ[6
!!!cut: Metzger zu Frankfurt (2-37) S. 117
!!!reg: Lothringen
!!!trd: PINCK, Louis: Verklingende Weisen, Bd 2, Metz 1928
!!!rhy1: X_  X_X_X_X__X_  X__X_X__   (x2)
!!!rhy2: X_  X_X_X_X_X_X_  X__.X__
!!!key: P0910  16  A 6/8 ]  ZZ[6
!!!mod: PENTATONIK ]  AMBITUS[8
!!!kad: 111111
!!!akz: -5131_3-521_-5131_3-521_-5131_3-521_
!!!fot: 'a__b__av_b__av_b__
!!!for: 'a__b__c__b__c__b__
!!!fok: '^a_Vd_^a_Vd_^a_Vd_
!! PHRAS[AUFTAKTIG]
!!!fkt: Brautwerbung
!! LOTH VKL
!! PR[25] 2K[5] 2G[3] 3K[14] 3G[5] 4A[0] 4Ü[0] 5A[2] 6K[0] 6G[0]
!! 7K[0] 7G[0] 8A[2] MEHR[0] SI[29] ABS[65] SR[8] SP[22]
!! ST[21] 2k[12] 2g[23] 3k[9] 3g[0] 4d[2] 4ü[0] 5d[0] 6k[0] 6g[0]
!! 7k[0] 7g[0] 8d[0] mehr[0] si[46] dm[-17] sr[35] sp[11]
!! 1F[15] 2F[65] 3F[9] 4F[0] LF[0] 2P[6] 3P[5] 4P[0] TRI[0] DF[5] AB[66]
!! TF[0] U3K[0] U3[0] U4[0] U4Ü[0] U5[0] U6K[0] U6[0] U7K[0] U7[0]
!! N1[3] N2K[0] N2[6] N3K[0] N3[24] N4[14] N4Ü[0] N5[21] N6K[0] N6[24]
!!!n7k: 2] N7[3] O1[3] O2K[0] O2[0] O3K[0] O3[0] HÖ[0
